build/assets/img/icons/globe.svg

<svg width="26" height="26" viewBox="0 0 26 26" fill="none" xmlns="http://www.w3.org/2000/svg">
<path d="M16.4999 1.86748C15.395 1.52045 14.2193 1.33337 12.9999 1.33337C6.5566 1.33337 1.33325 6.55672 1.33325 13C1.33325 19.4434 6.5566 24.6667 12.9999 24.6667C19.4432 24.6667 24.6666 19.4434 24.6666 13C24.6666 10.9988 24.1627 9.1153 23.2749 7.46939M18.8333 5.70837H18.8391M11.25 24.5363L11.2501 21.9658C11.2501 21.8266 11.2999 21.6919 11.3905 21.5862L14.2906 18.2027C14.5289 17.9246 14.4551 17.4983 14.1371 17.3166L10.8049 15.4124C10.7143 15.3607 10.6393 15.2856 10.5876 15.195L8.41545 11.3884C8.3024 11.1903 8.08425 11.0763 7.85705 11.0965L1.40813 11.6709M23.4999 6.00004C23.4999 8.57737 21.1666 10.6667 18.8333 13C16.4999 10.6667 14.1666 8.57737 14.1666 6.00004C14.1666 3.42271 16.2559 1.33337 18.8333 1.33337C21.4106 1.33337 23.4999 3.42271 23.4999 6.00004ZM19.1249 5.70837C19.1249 5.86946 18.9943 6.00004 18.8333 6.00004C18.6722 6.00004 18.5416 5.86946 18.5416 5.70837C18.5416 5.54729 18.6722 5.41671 18.8333 5.41671C18.9943 5.41671 19.1249 5.54729 19.1249 5.70837Z" stroke="white" stroke-width="1.5" stroke-linecap="round" stroke-linejoin="round"/>
</svg>

<svg width="26" height="26" fill="none" xmlns="http://www.w3.org/2000/svg"><path d="M16.5 1.867a11.662 11.662 0 00-3.5-.534C6.557 1.333 1.333 6.557 1.333 13S6.557 24.667 13 24.667 24.667 19.443 24.667 13c0-2.001-.504-3.885-1.392-5.53m-4.442-1.762h.006M11.25 24.536v-2.57c0-.14.05-.274.14-.38l2.9-3.383a.583.583 0 00-.153-.886l-3.332-1.905a.583.583 0 01-.217-.217l-2.173-3.807a.583.583 0 00-.558-.291l-6.449.574M23.5 6c0 2.577-2.333 4.667-4.667 7-2.333-2.333-4.666-4.423-4.666-7A4.667 4.667 0 1123.5 6zm-4.375-.292a.292.292 0 11-.583 0 .292.292 0 01.583 0z" stroke="#fff" stroke-width="1.5" stroke-linecap="round" stroke-linejoin="round"/></svg>
